X:1
T:The Bonny Labouring Boy
M:4/4
L:1/4
K:C
A/2-G/2| F E D D| F- G A A/2G/2| G F D C| D3| D| D E F G| A B c c|\
 B AG/2-A/2 B| A3| D/2D/2| D E F G| A- B c c| B A G B| A3|A/2-G/2|\
 F E D D| F G A A| G E F E| D3||
